public/home/img/logo.svg

<svg height="43" viewBox="0 0 49 43" width="49" xmlns="http://www.w3.org/2000/svg"><g fill="#eb5424" fill-rule="evenodd"><path d="m42.7721215 21.2728244c0-11.49146518-9.3681935-20.80713829-20.924446-20.80713829-11.5562524 0-20.92444596 9.31567311-20.92444596 20.80713829 0 11.4914651 9.36819356 20.8071382 20.92444596 20.8071382 11.5562525 0 20.924446-9.3156731 20.924446-20.8071382zm-38.04444723 0c0-9.4021079 7.66488563-17.02402224 17.12000123-17.02402224 9.4551157 0 17.1200013 7.62191434 17.1200013 17.02402224 0 9.4021078-7.6648856 17.0240222-17.1200013 17.0240222-9.4551156 0-17.12000123-7.6219144-17.12000123-17.0240222z"/><path d="m30.0906391 21.2728244c0-4.5269409-3.6905005-8.1967515-8.2429636-8.1967515-4.552463 0-8.2429635 3.6698106-8.2429635 8.1967515 0 4.5269408 3.6905005 8.1967514 8.2429635 8.1967514 4.5524631 0 8.2429636-3.6698106 8.2429636-8.1967514zm-12.6814824 0c0-2.4375836 1.9871926-4.4136354 4.4385188-4.4136354 2.4513263 0 4.4385189 1.9760518 4.4385189 4.4136354 0 2.4375835-1.9871926 4.4136353-4.4385189 4.4136353-2.4513262 0-4.4385188-1.9760518-4.4385188-4.4136353z"/><path d="m47.0770025 23.1643824c.9842097 0 1.7820693-.8468794 1.7820693-1.891558 0-1.0446787-.7978596-1.8915581-1.7820693-1.8915581h-19.0087388c-.9842097 0-1.7820693.8468794-1.7820693 1.8915581 0 1.0446786.7978596 1.891558 1.7820693 1.891558z"/></g></svg>

<?xml version="1.0" encoding="UTF-8" standalone="no"?>
<svg width="49px" height="43px" viewBox="0 0 49 43" version="1.1" xmlns="http://www.w3.org/2000/svg" xmlns:xlink="http://www.w3.org/1999/xlink" xmlns:sketch="http://www.bohemiancoding.com/sketch/ns">
    <!-- Generator: Sketch 3.2.2 (9983) - http://www.bohemiancoding.com/sketch -->
    <title>sharelock + Group</title>
    <desc>Created with Sketch.</desc>
    <defs></defs>
    <g id="Landing" stroke="none" stroke-width="1" fill="none" fill-rule="evenodd" sketch:type="MSPage">
        <g id="Landing-Home-2" sketch:type="MSArtboardGroup" transform="translate(-49.000000, -38.000000)" fill="#EB5424">
            <g id="sharelock-+-Group" sketch:type="MSLayerGroup" transform="translate(49.000000, 38.000000)">
                <path d="M42.7721215,21.2728244 C42.7721215,9.78135922 33.403928,0.465686111 21.8476755,0.465686111 C10.2914231,0.465686111 0.923229541,9.78135922 0.923229541,21.2728244 C0.923229541,32.7642895 10.2914231,42.0799626 21.8476755,42.0799626 C33.403928,42.0799626 42.7721215,32.7642895 42.7721215,21.2728244 Z M4.72767427,21.2728244 C4.72767427,11.8707165 12.3925599,4.24880216 21.8476755,4.24880216 C31.3027912,4.24880216 38.9676768,11.8707165 38.9676768,21.2728244 C38.9676768,30.6749322 31.3027912,38.2968466 21.8476755,38.2968466 C12.3925599,38.2968466 4.72767427,30.6749322 4.72767427,21.2728244 Z" id="Oval-1" sketch:type="MSShapeGroup"></path>
                <path d="M30.0906391,21.2728244 C30.0906391,16.7458835 26.4001386,13.0760729 21.8476755,13.0760729 C17.2952125,13.0760729 13.604712,16.7458835 13.604712,21.2728244 C13.604712,25.7997652 17.2952125,29.4695758 21.8476755,29.4695758 C26.4001386,29.4695758 30.0906391,25.7997652 30.0906391,21.2728244 Z M17.4091567,21.2728244 C17.4091567,18.8352408 19.3963493,16.859189 21.8476755,16.859189 C24.2990018,16.859189 26.2861944,18.8352408 26.2861944,21.2728244 C26.2861944,23.7104079 24.2990018,25.6864597 21.8476755,25.6864597 C19.3963493,25.6864597 17.4091567,23.7104079 17.4091567,21.2728244 Z" id="Oval-2" sketch:type="MSShapeGroup"></path>
                <path d="M47.0770025,23.1643824 C48.0612122,23.1643824 48.8590718,22.317503 48.8590718,21.2728244 C48.8590718,20.2281457 48.0612122,19.3812663 47.0770025,19.3812663 L28.0682637,19.3812663 C27.084054,19.3812663 26.2861944,20.2281457 26.2861944,21.2728244 C26.2861944,22.317503 27.084054,23.1643824 28.0682637,23.1643824 L47.0770025,23.1643824 Z" id="Line" sketch:type="MSShapeGroup"></path>
            </g>
        </g>
    </g>
</svg>
